X: 94
T:The Mason's Apron *****************************
M:4/4
L:1/8
Q:200
R:reel
K:G
(3def|g2 G2 BAGE|DEGA BGAB|c2 A2 ABAG|FGAB cdef|g2 G2 BAGE|DEGA BGAB|cBc
d efge|dcBA G2:|\
GA|BGdG eGdG|BGdG edcB|cAeA fAeA|cAeA fedc|BGdG eGdG|BGdG edcB|ABcd efge
|dcBA G2:|
